img/icon-highfive-white.svg

<svg width="48" height="48" viewBox="0 0 48 48" fill="none" xmlns="http://www.w3.org/2000/svg">
<path d="M46.4532 25.3302C45.54 24.1484 43.9284 23.8797 42.2095 24.5781C41.7797 24.7393 41.1352 25.0079 40.3831 25.3302L43.4989 16.7888C43.7676 16.0367 43.7136 15.2311 43.3914 14.5325C43.0691 13.834 42.4782 13.2971 41.7261 13.0284C41.1888 12.8137 40.5978 12.8137 40.0609 12.9748L40.4371 11.9005C40.7058 11.1484 40.6518 10.3428 40.3296 9.64423C40.0073 8.94568 39.4164 8.40876 38.6643 8.14006C37.1602 7.60271 35.495 8.40874 34.9576 9.8593C34.6353 9.42949 34.1519 9.05365 33.6146 8.83852C32.1104 8.30117 30.4452 9.1072 29.8542 10.6113L29.3169 12.1155C28.9946 11.6856 28.5112 11.3098 27.9739 11.1487C26.4697 10.6113 24.8045 11.4174 24.2136 12.9751L22.4943 17.8097L21.6887 15.7682C21.42 15.0162 20.8291 14.4252 20.131 14.103C19.4325 13.7807 18.6804 13.7807 17.9824 14.0494C17.445 14.2641 17.0156 14.6404 16.693 15.0702L16.102 13.6197C15.8334 12.8676 15.2424 12.2767 14.5444 11.9544C13.8459 11.6322 13.0938 11.6322 12.3957 11.9008C11.8584 12.1156 11.429 12.4918 11.1064 12.9216C10.7841 12.2231 10.2467 11.6862 9.54866 11.3639C8.85019 11.0417 8.09812 11.0417 7.40005 11.3103C5.94951 11.9013 5.19743 13.6201 5.78835 15.1247L6.21816 16.199C5.6808 16.0914 5.14385 16.0914 4.60646 16.3065C3.15592 16.8975 2.40383 18.6163 2.99475 20.1208L6.80908 29.7905L4.4993 28.3939C3.85478 27.964 3.10267 27.7493 2.40422 27.8565C1.65215 27.964 0.953676 28.3939 0.523819 29.0383C-0.389376 30.3277 -0.067122 32.1541 1.16835 33.121C1.65061 33.6029 7.88222 38.5451 10.1385 40.1568C11.8037 41.3386 13.8453 41.9832 15.8867 41.9832C17.2297 41.9832 18.6263 41.7145 19.9694 41.1775C22.0644 40.3179 23.8372 38.8677 25.0191 36.9338C25.6637 37.3636 26.3621 37.6859 27.1142 37.9546C28.3497 38.3844 29.6391 38.5991 30.9286 38.5991C33.1848 38.5991 35.3338 37.9007 37.1602 36.5577C39.4164 34.8924 45.5945 29.7351 45.9703 29.4129C47.2058 28.4461 47.4205 26.5657 46.4537 25.3302L46.4532 25.3302ZM19.432 39.9421C16.4773 41.1239 13.3079 40.8017 10.8366 39.0825C8.63432 37.4708 2.18799 32.3135 2.13437 32.2599C1.43589 31.7226 1.27476 30.7022 1.75815 29.9501C1.97286 29.6279 2.34909 29.3592 2.77892 29.3056C3.20873 29.252 3.58457 29.3592 3.90724 29.5743C3.90724 29.5743 3.96083 29.5743 3.96083 29.6279L7.98984 32.0452C8.20456 32.2063 8.52719 32.1527 8.7419 31.9916C8.95662 31.8305 9.01058 31.5082 8.90303 31.2395L4.33663 19.7434C4.01436 18.8838 4.39021 17.9707 5.19624 17.6483C5.5185 17.5408 5.89471 17.5408 6.27054 17.7019C6.64677 17.8631 6.96902 18.1853 7.18374 18.5615L9.60105 24.7932C9.7086 25.0618 9.97727 25.223 10.192 25.223C10.2456 25.223 10.3531 25.223 10.4067 25.1694C10.729 25.0618 10.8901 24.632 10.7829 24.3098L8.41915 18.2932V18.2396C8.41915 18.186 8.36556 18.1321 8.36556 18.0785L7.07618 14.7479C6.75392 13.8883 7.12977 12.9752 7.93579 12.6529C8.31202 12.4917 8.74144 12.4917 9.11764 12.6529C9.49386 12.814 9.81611 13.1363 9.97725 13.5661L10.8369 15.8223L13.6304 23.0747C13.7379 23.3434 14.0066 23.5045 14.2213 23.5045C14.2749 23.5045 14.3825 23.5045 14.4361 23.4509C14.7583 23.3434 14.9195 22.9136 14.8123 22.5913L12.1263 15.5541L12.0727 15.393C11.7504 14.5333 12.1263 13.6202 12.9323 13.2979C13.3085 13.1367 13.7379 13.1367 14.1141 13.2979C14.4904 13.459 14.8126 13.7813 14.9738 14.2111L16.4243 17.8638C16.4243 17.9174 16.4243 17.9174 16.4779 17.9714L18.4118 23.0747C18.5194 23.397 18.9492 23.5581 19.2714 23.4509C19.5937 23.3434 19.7548 22.9136 19.6476 22.5913L17.6601 17.488C17.3378 16.6284 17.7137 15.7152 18.5197 15.3929C18.8959 15.2318 19.3253 15.2318 19.7015 15.3929C20.0778 15.554 20.4 15.8763 20.5611 16.3061L24.8589 27.4799C26.6306 32.5285 24.2668 38.0081 19.4318 39.942L19.432 39.9421ZM45.1102 28.3922C45.0566 28.4458 38.5564 33.8179 36.3537 35.4835C33.9364 37.3099 30.6055 37.7397 27.5973 36.6653C26.9527 36.4506 26.3079 36.128 25.7169 35.7521C25.7704 35.6446 25.8244 35.5374 25.878 35.3759C27.0063 32.7435 27.1135 29.7892 26.1467 27.0492L23.2995 19.7433L25.5021 13.458C25.8244 12.5984 26.7376 12.1686 27.5436 12.4372C27.9198 12.5983 28.2421 12.867 28.4568 13.2429C28.6179 13.6191 28.6715 14.1025 28.5104 14.4783L26.5764 19.9579C26.4689 20.2802 26.63 20.6564 26.9527 20.8175C27.0062 20.8175 27.1138 20.8711 27.1674 20.8711C27.4361 20.8711 27.7047 20.71 27.8119 20.4413L29.7458 14.9617C29.7458 14.9081 29.7458 14.9081 29.7994 14.8542L31.1424 11.1474C31.4647 10.2878 32.3779 9.858 33.1839 10.1266C33.5601 10.2877 33.8824 10.5564 34.0971 10.9323C34.2582 11.3085 34.3118 11.7919 34.1507 12.2216L34.0971 12.3828L31.4111 20.1721C31.3035 20.4944 31.4647 20.8706 31.8409 21.0317C31.8945 21.0317 32.002 21.0853 32.0556 21.0853C32.3243 21.0853 32.5929 20.9242 32.7001 20.6555L35.4937 12.705L36.2993 10.4487C36.6216 9.58913 37.5348 9.15936 38.3408 9.42796C38.717 9.5891 39.0393 9.85777 39.254 10.2336C39.4151 10.6098 39.4687 11.0932 39.3076 11.4691L38.1257 14.6925C38.0721 14.8 38.0721 14.8536 38.0182 14.9612C38.0182 15.0147 38.0182 15.0687 37.9646 15.0687L35.5473 21.7301C35.4397 22.0524 35.6009 22.4286 35.9235 22.5897C35.9771 22.5897 36.0846 22.6433 36.1382 22.6433C36.4069 22.6433 36.6756 22.4822 36.7827 22.2135L39.3076 15.2298C39.6838 14.4777 40.597 14.0479 41.2951 14.3166C41.6714 14.4777 41.9936 14.7464 42.2083 15.1222C42.3695 15.4984 42.423 15.9818 42.2619 16.3577L38.7163 25.9736C38.1253 26.1883 37.588 26.4034 37.3197 26.511C33.9352 25.2216 32.1088 26.7257 30.6046 27.9076C30.336 28.1223 30.2824 28.5521 30.4971 28.8208C30.7118 29.0895 31.1416 29.143 31.4103 28.9283C32.8608 27.7465 34.2038 26.6186 37.051 27.8C37.2121 27.8536 37.3733 27.8536 37.5344 27.8C37.6955 27.7464 41.4022 26.2958 42.6917 25.7586C43.3902 25.4899 44.6793 25.114 45.3777 26.0808C45.9694 26.8344 45.8083 27.8551 45.1102 28.3921L45.1102 28.3922Z" fill="white"/>
<path d="M8.47301 6.79667L11.8036 8.94529C11.9111 8.99887 12.0183 9.05283 12.1798 9.05283C12.3945 9.05283 12.6096 8.94529 12.7171 8.73057C12.9319 8.40831 12.8247 8.03209 12.5024 7.81738L9.17187 5.66876C8.84961 5.45404 8.4734 5.56122 8.25868 5.88348C8.04321 6.20574 8.15076 6.58196 8.47302 6.79667H8.47301Z" fill="white"/>
<path d="M16.3162 6.25957C16.4237 6.52824 16.6384 6.68937 16.9607 6.68937C17.0143 6.68937 17.1218 6.68938 17.1754 6.63579C17.4977 6.52824 17.7128 6.15239 17.6052 5.77618L15.7788 0.457787C15.6713 0.135524 15.2954 -0.0795679 14.9192 0.0279779C14.5969 0.135524 14.3819 0.511373 14.4894 0.887587L16.3162 6.25957Z" fill="white"/>
<path d="M22.118 5.77624C22.1716 5.82982 22.2791 5.82982 22.3327 5.82982C22.6014 5.82982 22.8701 5.66869 22.9237 5.40001L24.2667 1.69323C24.3742 1.37096 24.2131 0.994748 23.8904 0.833616C23.5682 0.726071 23.192 0.887202 23.0308 1.20984L21.6878 4.91663C21.581 5.29248 21.7958 5.66869 22.118 5.77624L22.118 5.77624Z" fill="white"/>
<path d="M26.8452 42.8429C26.523 42.7354 26.1468 42.9505 26.0396 43.2727L24.9113 47.033C24.8037 47.3553 25.0188 47.7315 25.3411 47.8387C25.3947 47.8387 25.4486 47.8923 25.5558 47.8923C25.8245 47.8923 26.0932 47.7311 26.2003 47.4089L27.3286 43.6486C27.3826 43.3263 27.2215 42.9505 26.8453 42.8429H26.8452Z" fill="white"/>
<path d="M32.4319 41.8759C32.2708 41.5537 31.8946 41.3925 31.5723 41.4997C31.2501 41.6608 31.0889 42.037 31.1961 42.3593L33.3447 47.5702C33.4523 47.8388 33.7209 48 33.9357 48C34.0432 48 34.0968 48 34.2043 47.9464C34.5266 47.7853 34.6877 47.409 34.5806 47.0868L32.4319 41.8759Z" fill="white"/>
<path d="M40.2754 40.5867L36.8373 38.6527C36.515 38.4916 36.1388 38.5991 35.9241 38.9214C35.763 39.2437 35.8705 39.6199 36.1928 39.8346L39.6309 41.7685C39.7384 41.8221 39.8456 41.8761 39.9531 41.8761C40.1678 41.8761 40.3829 41.7685 40.5441 41.5538C40.7052 41.1776 40.5977 40.8014 40.2754 40.5867H40.2754Z" fill="white"/>
</svg>

<svg xmlns="http://www.w3.org/2000/svg" width="48" height="48" fill="#fff" xmlns:v="https://vecta.io/nano"><path d="M46.453 25.33c-.913-1.182-2.525-1.451-4.244-.752l-1.826.752 3.116-8.541a2.98 2.98 0 0 0-.108-2.256c-.322-.699-.913-1.235-1.665-1.504-.537-.215-1.128-.215-1.665-.054l.376-1.074a2.98 2.98 0 0 0-.108-2.256c-.322-.699-.913-1.235-1.665-1.504-1.504-.537-3.169.269-3.707 1.719-.322-.43-.806-.806-1.343-1.021-1.504-.537-3.169.269-3.76 1.773l-.537 1.504c-.322-.43-.806-.806-1.343-.967-1.504-.537-3.169.269-3.76 1.826l-1.719 4.835-.806-2.041c-.269-.752-.86-1.343-1.558-1.665s-1.451-.322-2.149-.054c-.537.215-.967.591-1.289 1.021l-.591-1.45c-.269-.752-.86-1.343-1.558-1.665s-1.451-.322-2.149-.054c-.537.215-.967.591-1.289 1.021a3.14 3.14 0 0 0-1.558-1.558c-.698-.322-1.451-.322-2.149-.054-1.451.591-2.203 2.31-1.612 3.814l.43 1.074c-.537-.108-1.074-.108-1.612.107-1.451.591-2.203 2.31-1.612 3.814l3.814 9.67-2.31-1.397c-.645-.43-1.397-.645-2.095-.537a2.74 2.74 0 0 0-1.88 1.182c-.913 1.289-.591 3.116.645 4.083.482.482 6.714 5.424 8.97 7.036a10.01 10.01 0 0 0 5.748 1.826c1.343 0 2.74-.269 4.083-.806 2.095-.86 3.868-2.31 5.05-4.244.645.43 1.343.752 2.095 1.021a11.6 11.6 0 0 0 3.814.645 10.43 10.43 0 0 0 6.232-2.041c2.256-1.665 8.434-6.823 8.81-7.145a2.96 2.96 0 0 0 .483-4.083h0zM19.432 39.942c-2.955 1.182-6.124.86-8.595-.86-2.202-1.612-8.649-6.769-8.702-6.823-.698-.537-.86-1.558-.376-2.31.215-.322.591-.591 1.021-.645a1.62 1.62 0 0 1 1.128.269s.054 0 .054.054l4.029 2.417c.215.161.537.108.752-.054s.269-.483.161-.752L4.337 19.743c-.322-.86.054-1.773.86-2.095a1.5 1.5 0 0 1 1.074.054c.376.161.698.483.913.86l2.417 6.232c.108.269.376.43.591.43.054 0 .161 0 .215-.054.322-.108.483-.537.376-.86l-2.364-6.017v-.054c0-.054-.054-.107-.054-.161l-1.289-3.331c-.322-.86.054-1.773.86-2.095.376-.161.806-.161 1.182 0a1.6 1.6 0 0 1 .86.913l.86 2.256 2.794 7.252c.107.269.376.43.591.43.054 0 .161 0 .215-.054.322-.108.483-.537.376-.86l-2.686-7.037-.054-.161c-.322-.86.054-1.773.86-2.095.376-.161.806-.161 1.182 0a1.6 1.6 0 0 1 .86.913l1.45 3.653c0 .054 0 .054.054.108l1.934 5.103c.108.322.537.483.86.376s.483-.537.376-.86l-1.988-5.103c-.322-.86.054-1.773.86-2.095.376-.161.806-.161 1.182 0a1.6 1.6 0 0 1 .86.913l4.298 11.174c1.772 5.049-.592 10.528-5.427 12.462h0zm25.678-11.55c-.054.054-6.554 5.426-8.756 7.091-2.417 1.826-5.748 2.256-8.756 1.182a8.68 8.68 0 0 1-1.88-.913c.053-.108.108-.215.161-.376a11.43 11.43 0 0 0 .269-8.327L23.3 19.743l2.203-6.285c.322-.86 1.236-1.289 2.042-1.021.376.161.698.43.913.806.161.376.215.86.054 1.235l-1.934 5.48c-.107.322.054.699.376.86.053 0 .161.054.215.054a.7.7 0 0 0 .645-.43l1.934-5.48c0-.054 0-.054.054-.107l1.343-3.707c.322-.86 1.235-1.289 2.042-1.021.376.161.698.43.913.806.161.376.215.86.054 1.289l-.054.161-2.686 7.789c-.108.322.054.698.43.86.054 0 .161.054.215.054a.7.7 0 0 0 .645-.43l2.794-7.95.806-2.256c.322-.86 1.235-1.289 2.041-1.021.376.161.698.43.913.806.161.376.215.86.054 1.236l-1.182 3.223c-.054.107-.054.161-.108.269 0 .053 0 .107-.054.107l-2.417 6.661c-.108.322.054.698.376.86.054 0 .161.054.215.054a.7.7 0 0 0 .645-.43l2.525-6.984c.376-.752 1.289-1.182 1.987-.913.376.161.699.43.913.806.161.376.215.86.054 1.236l-3.546 9.616c-.591.215-1.128.43-1.397.537-3.384-1.289-5.211.215-6.715 1.397-.269.215-.322.645-.108.913s.645.322.913.108c1.45-1.182 2.794-2.31 5.641-1.128a.74.74 0 0 0 .483 0 290.29 290.29 0 0 0 5.157-2.041c.699-.269 1.988-.645 2.686.322.592.754.431 1.774-.267 2.311h0zM8.473 6.797l3.331 2.149c.107.054.215.108.376.108a.59.59 0 0 0 .537-.322c.215-.322.108-.698-.215-.913l-3.33-2.15c-.322-.215-.698-.108-.913.215s-.108.698.214.913h0zm7.843-.537c.108.269.322.43.645.43.054 0 .161 0 .215-.054.322-.108.537-.483.43-.86L15.779.458c-.107-.322-.483-.537-.86-.43-.322.108-.537.483-.43.86l1.827 5.372zm5.802-.484c.054.054.161.054.215.054.269 0 .537-.161.591-.43l1.343-3.707c.107-.322-.054-.698-.376-.86-.322-.108-.698.054-.86.376l-1.343 3.707c-.107.376.108.752.43.86h0zm4.727 37.067c-.322-.108-.698.108-.806.43l-1.128 3.76c-.108.322.107.698.43.806.054 0 .107.054.215.054.269 0 .537-.161.644-.483l1.128-3.76c.054-.322-.107-.698-.483-.806h0zm5.587-.967c-.161-.322-.537-.483-.86-.376-.322.161-.483.537-.376.86l2.149 5.211c.108.269.376.43.591.43.108 0 .161 0 .269-.054.322-.161.483-.537.376-.86l-2.149-5.211zm7.843-1.289l-3.438-1.934c-.322-.161-.698-.054-.913.269-.161.322-.054.699.269.913l3.438 1.934c.108.054.215.108.322.108.215 0 .43-.108.591-.322.161-.376.054-.752-.269-.967h0z"/></svg>
